images/maped.svg

<svg width="97" height="96" viewBox="0 0 97 96" fill="none" xmlns="http://www.w3.org/2000/svg">
<circle cx="48.5" cy="48" r="48" fill="#FCB72B"/>
<path d="M45.5698 62.301C45.3521 62.301 45.1389 62.3895 44.9852 62.5433C44.8314 62.697 44.7429 62.9105 44.7429 63.1279C44.7429 63.3453 44.8314 63.5588 44.9852 63.7125C45.1389 63.8663 45.3521 63.9548 45.5698 63.9548C45.7872 63.9548 46.0003 63.8663 46.1544 63.7125C46.3082 63.5588 46.3967 63.3462 46.3967 63.1279C46.3967 62.9105 46.3082 62.697 46.1544 62.5433C46.0003 62.3895 45.7872 62.301 45.5698 62.301Z" fill="black"/>
<path fill-rule="evenodd" clip-rule="evenodd" d="M62.0391 48.4188L60.1121 39.7131C60.6321 39.6427 61.0908 39.3781 61.4134 38.9951C61.7943 39.2331 62.2435 39.3714 62.7248 39.3714H64.3786C64.8353 39.3714 65.2054 39.0012 65.2054 38.5445V35.237C65.2054 34.7803 64.8353 34.4101 64.3786 34.4101H62.7248C62.2293 34.4101 61.7674 34.5568 61.3795 34.8084C61.001 34.3804 60.4483 34.1097 59.8333 34.1097H54.9522C54.0753 34.1097 53.3246 34.6598 53.0258 35.4327H51.0659C49.8805 35.4327 48.916 36.3972 48.916 37.5826C48.916 38.768 49.8805 39.7325 51.0659 39.7325H55.322V41.3988C55.322 41.8555 55.6922 42.2257 56.1489 42.2257C56.6056 42.2257 56.9758 41.8555 56.9758 41.3988V39.7325H58.4228L60.4984 49.1107L56.5701 56.1075C56.1408 56.8691 55.3314 57.3423 54.457 57.3423H44.6505C44.24 53.8995 41.3046 51.2208 37.7532 51.2208C36.1818 51.2208 34.6993 51.7328 33.4658 52.7011L33.4609 52.705C31.9922 53.8601 31.0691 55.5177 30.854 57.3423H29.1557C29.2636 51.3978 34.1328 46.5955 40.1021 46.5955H45.9677C46.4306 46.5955 46.8075 46.9725 46.8075 47.4356V54.8617C46.8075 55.3184 47.1776 55.6885 47.6344 55.6885H52.0342C53.8291 55.6885 55.4832 54.7124 56.3508 53.1417C56.7523 52.415 56.9651 51.592 56.9658 50.7622L56.97 48.0151C56.9706 47.5584 56.6008 47.1876 56.1441 47.1869H56.1431C55.687 47.1869 55.3169 47.5564 55.3162 48.0125L55.312 50.7603C55.3117 51.3119 55.1702 51.8591 54.9034 52.342C54.3265 53.3859 53.2271 54.0345 52.0342 54.0345H48.4612V47.4353C48.4612 47.0119 48.3547 46.6126 48.1676 46.2628C48.9105 45.8336 49.4118 45.0312 49.4118 44.1136C49.4118 42.7457 48.2988 41.633 46.9312 41.633H43.9131C43.6231 41.633 43.345 41.6834 43.0862 41.7751V34.5219C43.0862 33.154 41.9732 32.0413 40.6056 32.0413H35.2713C31.4044 32.0413 28.1886 34.8804 27.5975 38.5832C27.5727 38.6621 27.5591 38.7457 27.5591 38.8326C27.5591 38.8352 27.5593 38.8378 27.5594 38.8403C27.5596 38.8427 27.5598 38.8451 27.5598 38.8475C27.5203 39.164 27.5 39.486 27.5 39.8126V44.1139C27.5 45.3559 28.4176 46.3875 29.6105 46.5668L31.4415 48.3978C29.0155 50.6963 27.5 53.9463 27.5 57.5442V58.1692C27.5 58.6259 27.8702 58.996 28.3269 58.996H32.9738C32.9632 59.0493 32.9574 59.1049 32.9574 59.1614C32.9574 60.3614 33.4015 61.4592 34.1328 62.3009H28.3269C27.8702 62.3009 27.5 62.6714 27.5 63.1278C27.5 63.5845 27.8702 63.9547 28.3269 63.9547H37.6576L37.6852 63.9556C37.7079 63.9565 37.7305 63.9573 37.7532 63.9573C40.3976 63.9573 42.5491 61.8058 42.5491 59.1614C42.5491 59.1049 42.5433 59.0493 42.5326 58.996H54.457C55.759 58.996 56.9758 58.372 57.7384 57.3397H58.7855C58.5501 57.9127 58.4251 58.5303 58.4251 59.1614C58.4251 60.3614 58.8692 61.4592 59.6005 62.3009H48.8773C48.4205 62.3009 48.0504 62.6714 48.0504 63.1278C48.0504 63.5845 48.4205 63.9547 48.8773 63.9547H63.1253C63.1573 63.9557 63.189 63.9573 63.2209 63.9573C65.8653 63.9573 68.0168 61.8058 68.0168 59.1614C68.0168 58.5303 67.8918 57.9127 67.6563 57.3397H69.009C69.4658 57.3397 69.8359 56.9696 69.8359 56.5128C69.8359 52.1482 66.3653 48.5787 62.0391 48.4188ZM43.9131 43.2871H46.9312C47.387 43.2871 47.7581 43.6579 47.7581 44.1139C47.7581 44.5697 47.387 44.9408 46.9312 44.9408H43.9131C43.457 44.9408 43.0862 44.5697 43.0862 44.1139C43.0862 43.6579 43.457 43.2871 43.9131 43.2871ZM29.156 39.7109L29.156 39.7109C29.1549 39.7448 29.1537 39.7786 29.1537 39.8126V44.1139C29.1537 44.5697 29.5245 44.9408 29.9803 44.9408H29.9809H40.6053C41.0614 44.9408 41.4322 44.5697 41.4322 44.1139V34.5222C41.4322 34.0661 41.0614 33.6953 40.6053 33.6953H35.2713C32.5268 33.6953 30.199 35.5119 29.4264 38.0061H38.2057C38.6625 38.0061 39.0326 38.3762 39.0326 38.8329C39.0326 39.2896 38.6625 39.6598 38.2057 39.6598H29.1576L29.156 39.7109ZM31.9771 46.5946H33.8692C33.4719 46.8213 33.0885 47.0697 32.7196 47.3371L31.9771 46.5946ZM37.7852 62.3026C39.5029 62.2854 40.8953 60.8833 40.8953 59.1614C40.8953 59.1049 40.9012 59.0493 40.9118 58.996H34.5946C34.6053 59.0493 34.6111 59.1049 34.6111 59.1614C34.6111 60.862 35.9693 62.2502 37.6579 62.3009H37.7532C37.7593 62.3009 37.7654 62.3014 37.7715 62.3018C37.7761 62.3021 37.7806 62.3024 37.7852 62.3026ZM32.5226 57.3423C32.7274 56.0287 33.4173 54.842 34.4829 54.0051C34.4855 54.0035 34.4877 54.0012 34.4903 53.9996C35.4289 53.2638 36.5572 52.8746 37.7532 52.8746C40.3915 52.8746 42.5849 54.8142 42.9832 57.3423H32.5226ZM63.5517 36.0639H62.7248C62.2687 36.0639 61.8979 36.435 61.8979 36.8907C61.8979 37.3468 62.2687 37.7176 62.7248 37.7176H63.5517V36.0639ZM50.5698 37.5826C50.5698 37.309 50.7923 37.0865 51.0659 37.0865H52.8876V37.6679C52.8876 37.8087 52.9018 37.946 52.9286 38.0787H51.0659C50.7923 38.0787 50.5698 37.8562 50.5698 37.5826ZM54.9522 38.0787H56.1489H59.8333C60.0598 38.0787 60.2442 37.8946 60.2442 37.6679V36.1743C60.2442 35.9479 60.0598 35.7635 59.8333 35.7635H54.9522C54.7258 35.7635 54.5413 35.9479 54.5413 36.1743V37.6679C54.5413 37.8946 54.7258 38.0787 54.9522 38.0787ZM66.363 59.1614C66.363 60.8833 64.9706 62.2854 63.2529 62.3026C63.2507 62.3025 63.2484 62.3024 63.2462 62.3023C63.2438 62.3021 63.2415 62.302 63.2392 62.3018C63.2331 62.3014 63.227 62.301 63.2209 62.301H63.1256C61.437 62.2502 60.0788 60.862 60.0788 59.1614C60.0788 58.5044 60.2836 57.8694 60.6609 57.3397H65.781C66.1583 57.8694 66.363 58.5044 66.363 59.1614ZM61.8563 50.07L58.7032 55.686H68.1292C67.7274 52.5597 65.0762 50.1291 61.8563 50.07Z" fill="#495567"/>
<path d="M56.1489 45.5331C56.6056 45.5331 56.9758 45.163 56.9758 44.7063C56.9758 44.2495 56.6056 43.8794 56.1489 43.8794H56.146C55.6893 43.8794 55.3204 44.2495 55.3204 44.7063C55.3204 45.163 55.6922 45.5331 56.1489 45.5331V45.5331Z" fill="black"/>
</svg>

<svg width="97" height="96" fill="none" xmlns="http://www.w3.org/2000/svg"><circle cx="48.5" cy="48" r="48" fill="#FCB72B"/><path d="M45.57 62.301a.833.833 0 0 0-.585.242.833.833 0 0 0-.242.585c0 .217.088.43.242.584a.833.833 0 0 0 .585.243c.217 0 .43-.089.584-.242a.832.832 0 0 0 .243-.585.833.833 0 0 0-.243-.585.834.834 0 0 0-.584-.242Z" fill="#000"/><path fill-rule="evenodd" clip-rule="evenodd" d="m62.04 48.419-1.928-8.706c.52-.07.979-.335 1.301-.718.381.238.83.376 1.312.376h1.654c.456 0 .826-.37.826-.827v-3.307a.827.827 0 0 0-.826-.827h-1.654c-.496 0-.958.147-1.346.398a2.06 2.06 0 0 0-1.546-.698h-4.88c-.878 0-1.628.55-1.927 1.323h-1.96c-1.186 0-2.15.964-2.15 2.15 0 1.185.965 2.15 2.15 2.15h4.256v1.666a.827.827 0 1 0 1.654 0v-1.666h1.447l2.075 9.378-3.928 6.997a2.429 2.429 0 0 1-2.113 1.234h-9.806c-.411-3.442-3.346-6.121-6.898-6.121a6.88 6.88 0 0 0-4.287 1.48l-.005.004a6.906 6.906 0 0 0-2.607 4.637h-1.698c.108-5.944 4.977-10.746 10.946-10.746h5.866c.463 0 .84.377.84.84v7.426c0 .456.37.826.826.826h4.4a4.932 4.932 0 0 0 4.932-4.926l.004-2.747a.827.827 0 0 0-1.654-.003l-.004 2.748a3.279 3.279 0 0 1-3.278 3.274h-3.573v-6.599a2.48 2.48 0 0 0-.293-1.172 2.482 2.482 0 0 0 1.244-2.15 2.483 2.483 0 0 0-2.48-2.48h-3.019c-.29 0-.568.05-.827.142v-7.253a2.483 2.483 0 0 0-2.48-2.48H35.27c-3.867 0-7.082 2.838-7.674 6.541a.83.83 0 0 0-.038.25v.014a7.79 7.79 0 0 0-.059.966v4.3c0 1.243.918 2.275 2.11 2.454l1.832 1.83a12.568 12.568 0 0 0-3.942 9.147v.625c0 .457.37.827.827.827h4.647a.85.85 0 0 0-.017.165c0 1.2.444 2.298 1.176 3.14h-5.806a.827.827 0 0 0 0 1.654h9.358c.023.002.045.002.068.002a4.801 4.801 0 0 0 4.796-4.796.842.842 0 0 0-.016-.165h11.924a4.085 4.085 0 0 0 3.281-1.656h1.047A4.772 4.772 0 0 0 59.6 62.3H48.877a.827.827 0 0 0 0 1.654h14.248l.096.002a4.801 4.801 0 0 0 4.796-4.796 4.79 4.79 0 0 0-.36-1.821h1.352c.457 0 .827-.37.827-.827 0-4.365-3.47-7.934-7.797-8.094Zm-18.127-5.132h3.018a.828.828 0 0 1 0 1.654h-3.018a.828.828 0 0 1 0-1.654Zm-14.757-3.576-.002.102v4.3c0 .457.37.828.826.828h10.625a.828.828 0 0 0 .827-.827v-9.592a.828.828 0 0 0-.827-.827h-5.334a6.128 6.128 0 0 0-5.845 4.311h8.78a.827.827 0 1 1 0 1.654h-9.048l-.002.05Zm2.821 6.884h1.892c-.397.226-.78.475-1.15.742l-.742-.742Zm5.808 15.708a3.145 3.145 0 0 0 3.11-3.142.85.85 0 0 1 .017-.165h-6.317c.01.053.016.109.016.165 0 1.701 1.358 3.09 3.047 3.14h.114l.013.002Zm-5.262-4.96a5.26 5.26 0 0 1 1.96-3.338L34.49 54a5.24 5.24 0 0 1 3.263-1.125 5.303 5.303 0 0 1 5.23 4.467h-10.46Zm31.029-21.28h-.827a.828.828 0 0 0 0 1.655h.827v-1.654Zm-12.982 1.52c0-.274.222-.496.496-.496h1.822v.58c0 .142.014.279.04.412h-1.862a.497.497 0 0 1-.496-.496Zm4.382.496h4.881c.227 0 .411-.184.411-.411v-1.494a.411.411 0 0 0-.41-.41h-4.882a.411.411 0 0 0-.41.41v1.494c0 .227.184.41.41.41ZM66.363 59.16a3.145 3.145 0 0 1-3.11 3.142h-.007l-.007-.001a.28.28 0 0 0-.018-.001h-.095a3.145 3.145 0 0 1-3.047-3.14c0-.657.205-1.292.582-1.821h5.12c.377.53.582 1.164.582 1.821Zm-4.507-9.091-3.153 5.616h9.426a6.454 6.454 0 0 0-6.273-5.616Z" fill="#495567"/><path d="M56.149 45.533a.827.827 0 1 0 0-1.654h-.003a.826.826 0 1 0 .003 1.654Z" fill="#000"/></svg>
